src/assets/icons/shoe.svg

<svg xmlns="http://www.w3.org/2000/svg" width="100%" height="100%" viewBox="0 0 512 512" fill="none"><path fill-rule="evenodd" d="M74.953 75.008c99.959-99.99 262.05-100.014 362.039-.055 48.013 47.998 74.994 113.102 75.008 180.992a256 256 0 0 1-74.953 181.047c-99.959 99.99-262.049 100.014-362.039.055s-100.014-262.049-.055-362.039zm367.55 194.776c4.352 1.585 8.31 7.294 9.139 11.866 2.54 14.012 7.032 42.283 4.714 55.794-2.24 13.056-17.455 18.424-26.079 20.443-3.262.755-5.95-1.618-5.95-4.96v-.502c0-3.343-2.607-5.302-5.822-4.385l-6.732 1.925c-3.216.91-5.823 4.011-5.823 6.906 0 2.901-2.039 7.06-4.927 8.737-7.053 4.092-15.516 5.991-21.078 6.853-3.302.514-6.01-2.019-6.01-5.362v-1.022c0-3.343-2.701-5.95-6.044-5.823l-2.085.073c-3.336.121-6.044 2.929-6.044 6.277v4.319c0 3.343-2.493 7.12-5.709 8.029-12.655 3.59-24.04 1.745-30.565-.041-3.222-.868-5.715-4.646-5.715-7.988v-5.382c0-3.343-2.708-6.044-6.05-6.044h-2.08c-3.342 0-6.049 2.702-6.049 6.044v3.122c0 3.343-2.273 7.695-5.595 8.09-8.09.969-21.7-1.578-29.462-3.283-3.269-.722-5.89-3.924-5.89-7.072s-2.132-7.381-5.04-9.019c-9.961-5.641-24.18-9.472-32.108-11.317-3.249-.755-5.91 1.438-5.91 4.78v1.016c0 3.342-2.614 6.765-5.896 7.386-13.15 2.487-24.321 1.29-30.752.074-3.289-.622-5.882-4.119-5.882-7.461v-3.643a5.76 5.76 0 0 0-6.044-5.81l-5.93.234c-3.343.127-6.044 2.935-6.044 6.284v1.196c0 3.35-2.647 6.666-5.963 7.087-17.662 2.266-37.918-1.518-47.678-3.757-3.25-.749-5.81-4.178-5.736-7.521l.554-26.139s-4.204-12.601-7.005-46.2c-1.089-13.117 2.113-22.396 7.194-31.34 23.091 7.026 83.811 30.196 83.811 79.64h12.602c0-56.069-61.717-81.94-89.407-90.711l.68-1.009c7.01-10.394 15.037-22.294 20.819-40.572 9.172-28.927 1.397-49.55-4.332-59.591-2.299-4.031-1.524-8.824 2.474-11.178l12.837-7.57c3.991-2.353 9.64-1.357 12.04 2.607 12.206 20.135 10.943 42.47 10.943 42.47l36.234.521c36.219.529 50.92-4.198 50.92-4.198v-9.974c0-4.639 1.798-11.785 5.094-15.048 5.749-5.708 13.116-8.664 18.685-10.181 4.473-1.223 8.778 2.173 9.493 6.759 1.076 6.952 2.815 17.635 5.021 29.448.676 3.63-1.578 7.574-4.913 9.165-5.923 2.828-13.324 7.226-22.429 13.998-2.794 2.08-3.376 6.024-1.297 8.812 1.244 1.664 3.136 2.54 5.061 2.54a6.3 6.3 0 0 0 3.75-1.243c7.187-5.348 12.996-8.939 17.595-11.359 3.269-1.718 6.679.094 7.495 3.697l.775 3.376c.842 3.596-1.096 7.842-4.278 9.713-4.312 2.535-9.199 5.756-14.728 9.861-2.788 2.079-3.363 6.03-1.291 8.818 1.238 1.664 3.143 2.54 5.062 2.54 1.317 0 2.634-.408 3.757-1.243 3.998-2.974 7.567-5.401 10.743-7.387 3.134-1.958 6.624-.514 7.861 2.968 1.044 2.909 2.092 5.509 3.156 7.735.174.362.36.715.548 1.077.314.588-2.019 2.52-5.141 4.499-3.269 2.072-6.819 4.505-10.69 7.387-2.795 2.079-3.376 6.023-1.29 8.811 1.236 1.665 3.135 2.547 5.06 2.547a6.31 6.31 0 0 0 3.75-1.243c4.185-3.108 7.895-5.622 11.171-7.661 3.134-1.945 7.927-1.257 10.796 1.069l1.771 1.404c2.922 2.253 2.795 5.322-.347 7.267-3.718 2.293-7.822 5.074-12.361 8.444a6.3 6.3 0 0 0-1.291 8.811 6.29 6.29 0 0 0 5.061 2.54c1.303 0 2.62-.407 3.757-1.243 7.16-5.328 12.956-8.918 17.548-11.338 3.269-1.718 8.697-1.431 12.027.154 20.497 9.801 44.182 16.292 60.949 16.292 18.049 0 29.761 2.835 36.546 5.315z" fill="#444"/></svg>

<svg width="100%" height="100%" viewBox="0 0 512 512" fill="none" xmlns="http://www.w3.org/2000/svg">
<path fill-rule="evenodd" clip-rule="evenodd" d="M74.9534 75.0084C174.912 -24.9816 337.003 -25.0056 436.992 74.9534C485.005 122.951 511.986 188.055 512 255.945C512.015 323.846 485.053 388.971 437.047 436.992C337.088 536.982 174.998 537.006 75.0084 437.047C-24.9816 337.088 -25.0056 174.998 74.9534 75.0084ZM442.503 269.784C446.855 271.369 450.813 277.078 451.642 281.65C454.182 295.662 458.674 323.933 456.356 337.444C454.116 350.5 438.901 355.868 430.277 357.887C427.015 358.642 424.327 356.269 424.327 352.927V352.425C424.327 349.082 421.72 347.123 418.505 348.04L411.773 349.965C408.557 350.875 405.95 353.976 405.95 356.871C405.95 359.772 403.911 363.931 401.023 365.608C393.97 369.7 385.507 371.599 379.945 372.461C376.643 372.975 373.935 370.442 373.935 367.099V366.077C373.935 362.734 371.234 360.127 367.891 360.254L365.806 360.327C362.47 360.448 359.762 363.256 359.762 366.604V370.923C359.762 374.266 357.269 378.043 354.053 378.952C341.398 382.542 330.013 380.697 323.488 378.911C320.266 378.043 317.773 374.265 317.773 370.923V365.541C317.773 362.198 315.065 359.497 311.723 359.497H309.643C306.301 359.497 303.594 362.199 303.594 365.541V368.663C303.594 372.006 301.321 376.358 297.999 376.753C289.909 377.722 276.299 375.175 268.537 373.47C265.268 372.748 262.647 369.546 262.647 366.398C262.647 363.249 260.515 359.017 257.607 357.379C247.646 351.738 233.427 347.907 225.499 346.062C222.25 345.307 219.589 347.5 219.589 350.842V351.858C219.589 355.2 216.975 358.623 213.693 359.244C200.543 361.731 189.372 360.534 182.941 359.318C179.652 358.696 177.059 355.199 177.059 351.857V348.214C177.059 344.871 174.357 342.271 171.015 342.404L165.085 342.638C161.742 342.765 159.041 345.573 159.041 348.922V350.118C159.041 353.468 156.394 356.784 153.078 357.205C135.416 359.471 115.16 355.687 105.4 353.448C102.15 352.699 99.5904 349.27 99.6638 345.927L100.218 319.788C100.218 319.788 96.0138 307.187 93.2125 273.588C92.1233 260.471 95.3252 251.192 100.406 242.248C123.497 249.274 184.217 272.444 184.217 321.888H196.819C196.819 265.819 135.102 239.948 107.412 231.177C107.637 230.842 107.864 230.506 108.092 230.168C115.102 219.774 123.129 207.874 128.911 189.596C138.083 160.669 130.308 140.046 124.579 130.005C122.28 125.974 123.055 121.181 127.053 118.827L139.89 111.257C143.881 108.904 149.53 109.9 151.93 113.864C164.136 133.999 162.873 156.334 162.873 156.334L199.107 156.855C235.326 157.384 250.027 152.657 250.027 152.657V142.683C250.027 138.044 251.825 130.898 255.121 127.635C260.87 121.927 268.237 118.971 273.806 117.454C278.279 116.231 282.584 119.627 283.299 124.213C284.375 131.165 286.114 141.848 288.32 153.661C288.996 157.291 286.742 161.235 283.407 162.826C277.484 165.654 270.083 170.052 260.978 176.824C258.184 178.904 257.602 182.848 259.681 185.636C260.925 187.3 262.817 188.176 264.742 188.176C266.045 188.176 267.362 187.768 268.492 186.933C275.679 181.585 281.488 177.994 286.087 175.574C289.356 173.856 292.766 175.668 293.582 179.271C293.836 180.401 294.096 181.531 294.357 182.647C295.199 186.243 293.261 190.489 290.079 192.36C285.767 194.895 280.88 198.116 275.351 202.221C272.563 204.3 271.988 208.251 274.06 211.039C275.298 212.703 277.203 213.579 279.122 213.579C280.439 213.579 281.756 213.171 282.879 212.336C286.877 209.362 290.446 206.935 293.622 204.949C296.756 202.991 300.246 204.435 301.483 207.917C302.527 210.826 303.575 213.426 304.639 215.652C304.813 216.014 304.999 216.367 305.187 216.729C305.501 217.317 303.168 219.249 300.046 221.228C296.777 223.3 293.227 225.733 289.356 228.615C286.561 230.694 285.98 234.638 288.066 237.426C289.302 239.091 291.201 239.973 293.126 239.973C294.436 239.973 295.753 239.559 296.876 238.73C301.061 235.622 304.771 233.108 308.047 231.069C311.181 229.124 315.974 229.812 318.843 232.138C319.418 232.607 320.013 233.081 320.614 233.542C323.536 235.795 323.409 238.864 320.267 240.809C316.549 243.102 312.445 245.883 307.906 249.253C305.118 251.325 304.536 255.276 306.615 258.064C307.859 259.729 309.75 260.604 311.676 260.604C312.979 260.604 314.296 260.197 315.433 259.361C322.593 254.033 328.389 250.443 332.981 248.023C336.25 246.305 341.678 246.592 345.008 248.177C365.505 257.978 389.19 264.469 405.957 264.469C424.006 264.469 435.718 267.304 442.503 269.784Z" fill="#444444"/>
</svg>
